Programm/icons/upload.svg

<svg xmlns="http://www.w3.org/2000/svg" viewBox="0 0 20 20"><path d="M13 10v6H7v-6H2l8-8 8 8h-5zM0 18h20v2H0v-2z"/></svg>

<?xml version="1.0" encoding="UTF-8" standalone="no"?>
<!DOCTYPE svg PUBLIC "-//W3C//DTD SVG 1.1//EN" "http://www.w3.org/Graphics/SVG/1.1/DTD/svg11.dtd">
<svg width="100%" height="100%" viewBox="0 0 512 512" version="1.1" xmlns="http://www.w3.org/2000/svg" xmlns:xlink="http://www.w3.org/1999/xlink" xml:space="preserve" xmlns:serif="http://www.serif.com/" style="fill-rule:evenodd;clip-rule:evenodd;stroke-linejoin:round;stroke-miterlimit:2;">
    <g transform="matrix(25.6,0,0,25.6,0,0)">
        <path d="M13,10L13,16L7,16L7,10L2,10L10,2L18,10L13,10ZM0,18L20,18L20,20L0,20L0,18Z" style="fill-rule:nonzero;"/>
    </g>
</svg>
